synths/sADA.svg

<svg width="42" height="42" viewBox="0 0 42 42" fill="none" xmlns="http://www.w3.org/2000/svg">
<g clip-path="url(#clip0_7277_57979)">
<mask id="mask0_7277_57979" style="mask-type:alpha" maskUnits="userSpaceOnUse" x="0" y="0" width="42" height="42">
<circle cx="21" cy="21" r="21" fill="url(#paint0_linear_7277_57979)"/>
</mask>
<g mask="url(#mask0_7277_57979)">
<circle cx="21" cy="21" r="21" fill="#34EDB3"/>
<circle cx="21" cy="21" r="18.2" fill="white"/>
</g>
<circle cx="21" cy="21" r="16.1" fill="#06061B"/>
<g clip-path="url(#clip1_7277_57979)">
<path d="M21 37.1C29.8918 37.1 37.1 29.8918 37.1 21C37.1 12.1082 29.8918 4.90002 21 4.90002C12.1082 4.90002 4.90002 12.1082 4.90002 21C4.90002 29.8918 12.1082 37.1 21 37.1Z" fill="#0D1E30"/>
<g filter="url(#filter0_d_7277_57979)">
<path d="M20.7229 10.9981C21.2049 10.7495 21.7935 11.3241 21.5379 11.798C21.388 12.1844 20.8235 12.2871 20.5357 11.9922C20.2308 11.7105 20.3304 11.151 20.7229 10.9971V10.9981ZM15.5356 11.5475C15.8285 11.4287 16.1998 11.6924 16.1696 12.0073C16.1998 12.3474 15.7771 12.599 15.4783 12.437C15.0828 12.2861 15.1281 11.6541 15.5356 11.5475V11.5475ZM26.1596 12.4461C25.7018 12.3917 25.6293 11.6833 26.0691 11.5404C26.4112 11.3774 26.7251 11.6843 26.7755 12.0033C26.703 12.275 26.4716 12.5245 26.1596 12.4461V12.4461ZM16.716 13.719C17.206 13.4141 17.9044 13.8679 17.8289 14.4284C17.8037 14.9929 17.041 15.3209 16.6103 14.9385C16.1937 14.6387 16.2571 13.9504 16.716 13.719ZM24.1924 14.043C24.4108 13.4895 25.2963 13.4714 25.5448 14.0108C25.7913 14.4304 25.4885 14.9506 25.0507 15.0935C24.4701 15.2002 23.9197 14.5823 24.1924 14.043ZM20.098 15.0623C20.0929 14.5853 20.5337 14.2311 20.9935 14.1979C21.2994 14.2583 21.6315 14.3861 21.7623 14.689C22.0068 15.1076 21.7895 15.6822 21.3498 15.8744C21.1485 15.985 20.909 15.9438 20.6897 15.9307C20.3546 15.7697 20.0718 15.4507 20.098 15.0623ZM12.3841 15.7566C12.8318 15.4849 13.4356 15.978 13.2655 16.457C13.173 16.8705 12.6075 17.0386 12.2844 16.7749C11.9393 16.5274 11.9936 15.9327 12.3851 15.7556L12.3841 15.7566ZM28.949 15.7546C29.3283 15.4648 29.9552 15.7979 29.9089 16.2688C29.9351 16.6985 29.3927 17.0235 29.0164 16.8021C28.6018 16.618 28.5585 15.9901 28.949 15.7556V15.7546ZM22.2675 16.6109C22.8933 16.3896 23.638 16.6542 23.9942 17.2046C24.4651 17.8758 24.2156 18.8981 23.484 19.2835C22.7273 19.7394 21.6214 19.354 21.3407 18.5208C21.0237 17.7762 21.4866 16.8444 22.2664 16.6109H22.2675ZM18.5916 16.6844C19.2859 16.3624 20.2207 16.6321 20.5558 17.3304C20.9503 18.0106 20.6454 18.9575 19.94 19.3087C19.2336 19.7041 18.2364 19.4043 17.8953 18.6747C17.5119 17.9684 17.852 17.0094 18.5916 16.6844V16.6844ZM14.9118 17.9211C14.9651 17.4813 15.3867 17.1946 15.8124 17.1644C16.0343 17.1878 16.2418 17.2859 16.4008 17.4425C16.5598 17.5992 16.661 17.8051 16.6878 18.0267C16.6576 18.4795 16.3024 18.9203 15.8154 18.9183C15.279 18.9635 14.8091 18.4383 14.9118 17.9211V17.9211ZM25.7813 17.261C26.3317 16.946 27.0954 17.4039 27.0713 18.0257C27.1085 18.6848 26.2633 19.1487 25.7159 18.7623C25.1463 18.4403 25.1906 17.5347 25.7813 17.261ZM17.0973 19.5824C17.7393 19.4083 18.4759 19.7062 18.7909 20.2878C19.136 20.8734 18.9951 21.6865 18.4588 22.1171C17.7695 22.747 16.5006 22.4935 16.1344 21.6341C15.7127 20.8462 16.2249 19.7897 17.0963 19.5814L17.0973 19.5824ZM24.0676 19.5794C24.6925 19.4033 25.4271 19.6397 25.7632 20.2002C26.2079 20.8412 25.9956 21.7981 25.3345 22.2107C24.6402 22.6907 23.5675 22.4391 23.1852 21.6885C22.7223 20.9126 23.1882 19.8158 24.0676 19.5794V19.5794ZM12.9586 20.3099C13.5141 20.1036 14.1299 20.7064 13.9045 21.2487C13.7677 21.7418 13.0603 21.9249 12.695 21.5607C12.2673 21.2185 12.4253 20.4588 12.9586 20.3099V20.3099ZM28.0212 21.0968C28.0108 20.8753 28.0882 20.6586 28.2367 20.4939C28.3852 20.3292 28.5927 20.2298 28.8141 20.2173C29.1945 20.2777 29.5648 20.5796 29.5346 20.9871C29.5698 21.5255 28.9107 21.8907 28.4438 21.6382C28.2255 21.5285 28.1138 21.3081 28.0212 21.0968ZM10.2267 20.5776C10.5607 20.4337 10.9743 20.7184 10.8978 21.0837C10.8797 21.4973 10.2589 21.6573 10.0315 21.3111C9.8302 21.0706 9.95095 20.7013 10.2267 20.5766V20.5776ZM31.3066 20.5685C31.5421 20.4045 31.9204 20.5222 32.013 20.7929C32.171 21.0887 31.8812 21.4933 31.5431 21.4439C31.0681 21.4862 30.9152 20.7748 31.3066 20.5685ZM18.9126 22.5538C19.7921 22.3294 20.738 23.0509 20.744 23.9425C20.8003 24.8431 19.8686 25.641 18.969 25.4337C18.2726 25.323 17.7262 24.6629 17.7494 23.9716C17.7474 23.3095 18.2545 22.6937 18.9126 22.5538V22.5538ZM22.3963 22.5528C23.2888 22.3073 24.2628 23.0419 24.2488 23.9535C24.2961 24.837 23.3934 25.6088 22.512 25.4327C21.6818 25.3281 21.07 24.4315 21.3015 23.6386C21.4182 23.1113 21.867 22.6826 22.3963 22.5518V22.5528ZM15.6785 23.1012C16.2964 22.9976 16.876 23.6748 16.6254 24.2524C16.4423 24.8682 15.5326 25.0342 15.1301 24.5321C14.6592 24.0491 15.0114 23.1677 15.6785 23.1012V23.1012ZM25.896 23.1284C26.4474 22.901 27.1236 23.3699 27.0814 23.9586C27.1035 24.6056 26.2683 25.0524 25.73 24.674C25.1192 24.3349 25.2309 23.3357 25.896 23.1284V23.1284ZM28.7517 25.9459C28.5364 25.5505 28.9278 25.0262 29.3756 25.0997C29.597 25.0956 29.7529 25.2677 29.8948 25.4126C29.924 25.6471 29.9733 25.9268 29.7751 26.1069C29.5064 26.442 28.8976 26.3464 28.7517 25.9459V25.9459ZM12.3821 25.2093C12.7996 24.9366 13.4004 25.3442 13.3058 25.8231C13.2555 26.2488 12.7121 26.4913 12.3549 26.2498C11.9705 26.0314 11.9846 25.4086 12.3821 25.2093V25.2093ZM20.6263 26.0979C21.1727 25.8614 21.869 26.3293 21.8167 26.921C21.8569 27.575 20.9966 28.0278 20.4622 27.6354C19.8686 27.2983 19.9682 26.3061 20.6263 26.0979V26.0979ZM16.8085 26.9743C17.2734 26.7338 17.8973 27.1494 17.855 27.6626C17.8691 28.0832 17.4525 28.4414 17.0299 28.379C16.6808 28.372 16.4533 28.0631 16.3406 27.7702C16.3467 27.4513 16.4805 27.0961 16.8085 26.9753V26.9743ZM24.5426 26.9823C25.0216 26.6905 25.7018 27.1091 25.6565 27.6565C25.6686 28.2301 24.8998 28.5964 24.454 28.22C24.0234 27.9252 24.0757 27.2168 24.5426 26.9823ZM25.8879 30.2527C25.6746 29.9367 25.9252 29.5553 26.2703 29.4829C26.549 29.5382 26.8439 29.7445 26.7845 30.0605C26.7443 30.4901 26.1063 30.6209 25.8879 30.2537V30.2527ZM15.2106 29.978C15.2951 29.7264 15.5004 29.4778 15.8013 29.5433C16.239 29.5734 16.3688 30.2235 15.9854 30.4237C15.6413 30.6521 15.2408 30.3392 15.2106 29.978ZM20.3626 30.2667C20.4461 29.8944 20.9342 29.7143 21.2562 29.9115C21.4695 30.0021 21.5319 30.2356 21.5862 30.4348C21.5575 30.5383 21.5307 30.6423 21.5057 30.7467C21.3739 30.8997 21.2038 31.0536 20.9845 31.0486C20.577 31.0959 20.2087 30.6421 20.3616 30.2667H20.3626Z" fill="black"/>
</g>
<path d="M20.7229 10.9981C21.2049 10.7495 21.7935 11.3241 21.5379 11.798C21.388 12.1844 20.8235 12.2871 20.5357 11.9922C20.2308 11.7105 20.3304 11.151 20.7229 10.9971V10.9981ZM15.5356 11.5475C15.8285 11.4287 16.1998 11.6924 16.1696 12.0073C16.1998 12.3474 15.7771 12.599 15.4783 12.437C15.0828 12.2861 15.1281 11.6541 15.5356 11.5475V11.5475ZM26.1596 12.4461C25.7018 12.3917 25.6293 11.6833 26.0691 11.5404C26.4112 11.3774 26.7251 11.6843 26.7755 12.0033C26.703 12.275 26.4716 12.5245 26.1596 12.4461V12.4461ZM16.716 13.719C17.206 13.4141 17.9044 13.8679 17.8289 14.4284C17.8037 14.9929 17.041 15.3209 16.6103 14.9385C16.1937 14.6387 16.2571 13.9504 16.716 13.719ZM24.1924 14.043C24.4108 13.4895 25.2963 13.4714 25.5448 14.0108C25.7913 14.4304 25.4885 14.9506 25.0507 15.0935C24.4701 15.2002 23.9197 14.5823 24.1924 14.043ZM20.098 15.0623C20.0929 14.5853 20.5337 14.2311 20.9935 14.1979C21.2994 14.2583 21.6315 14.3861 21.7623 14.689C22.0068 15.1076 21.7895 15.6822 21.3498 15.8744C21.1485 15.985 20.909 15.9438 20.6897 15.9307C20.3546 15.7697 20.0718 15.4507 20.098 15.0623ZM12.3841 15.7566C12.8318 15.4849 13.4356 15.978 13.2655 16.457C13.173 16.8705 12.6075 17.0386 12.2844 16.7749C11.9393 16.5274 11.9936 15.9327 12.3851 15.7556L12.3841 15.7566ZM28.949 15.7546C29.3283 15.4648 29.9552 15.7979 29.9089 16.2688C29.9351 16.6985 29.3927 17.0235 29.0164 16.8021C28.6018 16.618 28.5585 15.9901 28.949 15.7556V15.7546ZM22.2675 16.6109C22.8933 16.3896 23.638 16.6542 23.9942 17.2046C24.4651 17.8758 24.2156 18.8981 23.484 19.2835C22.7273 19.7394 21.6214 19.354 21.3407 18.5208C21.0237 17.7762 21.4866 16.8444 22.2664 16.6109H22.2675ZM18.5916 16.6844C19.2859 16.3624 20.2207 16.6321 20.5558 17.3304C20.9503 18.0106 20.6454 18.9575 19.94 19.3087C19.2336 19.7041 18.2364 19.4043 17.8953 18.6747C17.5119 17.9684 17.852 17.0094 18.5916 16.6844V16.6844ZM14.9118 17.9211C14.9651 17.4813 15.3867 17.1946 15.8124 17.1644C16.0343 17.1878 16.2418 17.2859 16.4008 17.4425C16.5598 17.5992 16.661 17.8051 16.6878 18.0267C16.6576 18.4795 16.3024 18.9203 15.8154 18.9183C15.279 18.9635 14.8091 18.4383 14.9118 17.9211V17.9211ZM25.7813 17.261C26.3317 16.946 27.0954 17.4039 27.0713 18.0257C27.1085 18.6848 26.2633 19.1487 25.7159 18.7623C25.1463 18.4403 25.1906 17.5347 25.7813 17.261ZM17.0973 19.5824C17.7393 19.4083 18.4759 19.7062 18.7909 20.2878C19.136 20.8734 18.9951 21.6865 18.4588 22.1171C17.7695 22.747 16.5006 22.4935 16.1344 21.6341C15.7127 20.8462 16.2249 19.7897 17.0963 19.5814L17.0973 19.5824ZM24.0676 19.5794C24.6925 19.4033 25.4271 19.6397 25.7632 20.2002C26.2079 20.8412 25.9956 21.7981 25.3345 22.2107C24.6402 22.6907 23.5675 22.4391 23.1852 21.6885C22.7223 20.9126 23.1882 19.8158 24.0676 19.5794V19.5794ZM12.9586 20.3099C13.5141 20.1036 14.1299 20.7064 13.9045 21.2487C13.7677 21.7418 13.0603 21.9249 12.695 21.5607C12.2673 21.2185 12.4253 20.4588 12.9586 20.3099V20.3099ZM28.0212 21.0968C28.0108 20.8753 28.0882 20.6586 28.2367 20.4939C28.3852 20.3292 28.5927 20.2298 28.8141 20.2173C29.1945 20.2777 29.5648 20.5796 29.5346 20.9871C29.5698 21.5255 28.9107 21.8907 28.4438 21.6382C28.2255 21.5285 28.1138 21.3081 28.0212 21.0968ZM10.2267 20.5776C10.5607 20.4337 10.9743 20.7184 10.8978 21.0837C10.8797 21.4973 10.2589 21.6573 10.0315 21.3111C9.8302 21.0706 9.95095 20.7013 10.2267 20.5766V20.5776ZM31.3066 20.5685C31.5421 20.4045 31.9204 20.5222 32.013 20.7929C32.171 21.0887 31.8812 21.4933 31.5431 21.4439C31.0681 21.4862 30.9152 20.7748 31.3066 20.5685ZM18.9126 22.5538C19.7921 22.3294 20.738 23.0509 20.744 23.9425C20.8003 24.8431 19.8686 25.641 18.969 25.4337C18.2726 25.323 17.7262 24.6629 17.7494 23.9716C17.7474 23.3095 18.2545 22.6937 18.9126 22.5538V22.5538ZM22.3963 22.5528C23.2888 22.3073 24.2628 23.0419 24.2488 23.9535C24.2961 24.837 23.3934 25.6088 22.512 25.4327C21.6818 25.3281 21.07 24.4315 21.3015 23.6386C21.4182 23.1113 21.867 22.6826 22.3963 22.5518V22.5528ZM15.6785 23.1012C16.2964 22.9976 16.876 23.6748 16.6254 24.2524C16.4423 24.8682 15.5326 25.0342 15.1301 24.5321C14.6592 24.0491 15.0114 23.1677 15.6785 23.1012V23.1012ZM25.896 23.1284C26.4474 22.901 27.1236 23.3699 27.0814 23.9586C27.1035 24.6056 26.2683 25.0524 25.73 24.674C25.1192 24.3349 25.2309 23.3357 25.896 23.1284V23.1284ZM28.7517 25.9459C28.5364 25.5505 28.9278 25.0262 29.3756 25.0997C29.597 25.0956 29.7529 25.2677 29.8948 25.4126C29.924 25.6471 29.9733 25.9268 29.7751 26.1069C29.5064 26.442 28.8976 26.3464 28.7517 25.9459V25.9459ZM12.3821 25.2093C12.7996 24.9366 13.4004 25.3442 13.3058 25.8231C13.2555 26.2488 12.7121 26.4913 12.3549 26.2498C11.9705 26.0314 11.9846 25.4086 12.3821 25.2093V25.2093ZM20.6263 26.0979C21.1727 25.8614 21.869 26.3293 21.8167 26.921C21.8569 27.575 20.9966 28.0278 20.4622 27.6354C19.8686 27.2983 19.9682 26.3061 20.6263 26.0979V26.0979ZM16.8085 26.9743C17.2734 26.7338 17.8973 27.1494 17.855 27.6626C17.8691 28.0832 17.4525 28.4414 17.0299 28.379C16.6808 28.372 16.4533 28.0631 16.3406 27.7702C16.3467 27.4513 16.4805 27.0961 16.8085 26.9753V26.9743ZM24.5426 26.9823C25.0216 26.6905 25.7018 27.1091 25.6565 27.6565C25.6686 28.2301 24.8998 28.5964 24.454 28.22C24.0234 27.9252 24.0757 27.2168 24.5426 26.9823ZM25.8879 30.2527C25.6746 29.9367 25.9252 29.5553 26.2703 29.4829C26.549 29.5382 26.8439 29.7445 26.7845 30.0605C26.7443 30.4901 26.1063 30.6209 25.8879 30.2537V30.2527ZM15.2106 29.978C15.2951 29.7264 15.5004 29.4778 15.8013 29.5433C16.239 29.5734 16.3688 30.2235 15.9854 30.4237C15.6413 30.6521 15.2408 30.3392 15.2106 29.978ZM20.3626 30.2667C20.4461 29.8944 20.9342 29.7143 21.2562 29.9115C21.4695 30.0021 21.5319 30.2356 21.5862 30.4348C21.5575 30.5383 21.5307 30.6423 21.5057 30.7467C21.3739 30.8997 21.2038 31.0536 20.9845 31.0486C20.577 31.0959 20.2087 30.6421 20.3616 30.2667H20.3626Z" fill="white"/>
</g>
</g>
<defs>
<filter id="filter0_d_7277_57979" x="9.78528" y="10.8651" width="22.418" height="20.4059" filterUnits="userSpaceOnUse" color-interpolation-filters="sRGB">
<feFlood flood-opacity="0" result="BackgroundImageFix"/>
<feColorMatrix in="SourceAlpha" type="matrix" values="0 0 0 0 0 0 0 0 0 0 0 0 0 0 0 0 0 0 127 0" result="hardAlpha"/>
<feOffset dy="0.0729955"/>
<feGaussianBlur stdDeviation="0.0729955"/>
<feColorMatrix type="matrix" values="0 0 0 0 0 0 0 0 0 0 0 0 0 0 0 0 0 0 0.204257 0"/>
<feBlend mode="normal" in2="BackgroundImageFix" result="effect1_dropShadow_7277_57979"/>
<feBlend mode="normal" in="SourceGraphic" in2="effect1_dropShadow_7277_57979" result="shape"/>
</filter>
<linearGradient id="paint0_linear_7277_57979" x1="21" y1="0" x2="21" y2="61.4091" gradientUnits="userSpaceOnUse">
<stop stop-color="#08021E"/>
<stop offset="1" stop-color="#1F0777"/>
</linearGradient>
<clipPath id="clip0_7277_57979">
<rect width="42" height="42" fill="white"/>
</clipPath>
<clipPath id="clip1_7277_57979">
<rect width="32.2" height="32.2" fill="white" transform="translate(4.90002 4.90002)"/>
</clipPath>
</defs>
</svg>

<svg xmlns="http://www.w3.org/2000/svg" width="42" height="42" fill="none"><g clip-path="url(#a)"><mask id="c" width="42" height="42" x="0" y="0" maskUnits="userSpaceOnUse" style="mask-type:alpha"><circle cx="21" cy="21" r="21" fill="url(#b)"/></mask><g mask="url(#c)"><circle cx="21" cy="21" r="21" fill="#34EDB3"/><circle cx="21" cy="21" r="18.2" fill="#fff"/></g><circle cx="21" cy="21" r="16.1" fill="#06061B"/><g clip-path="url(#d)"><path fill="#0D1E30" d="M21 37.1c8.892 0 16.1-7.208 16.1-16.1 0-8.892-7.208-16.1-16.1-16.1-8.892 0-16.1 7.208-16.1 16.1 0 8.892 7.208 16.1 16.1 16.1Z"/><g filter="url(#e)"><path fill="#000" d="M20.723 10.998c.482-.248 1.07.326.815.8-.15.386-.715.49-1.002.194-.305-.282-.206-.841.187-.995v.001Zm-5.187.55c.293-.12.664.144.634.46.03.34-.393.591-.692.429-.395-.15-.35-.783.058-.89Zm10.624.898c-.458-.054-.53-.763-.09-.906.341-.163.655.144.706.463-.073.272-.304.521-.616.443Zm-9.444 1.273c.49-.305 1.188.149 1.113.71-.025.564-.788.892-1.219.51-.416-.3-.353-.989.106-1.22Zm7.476.324c.219-.553 1.104-.572 1.353-.032.246.42-.057.94-.494 1.083-.58.106-1.131-.512-.859-1.051Zm-4.094 1.02c-.005-.478.436-.832.896-.865.305.06.637.188.768.491.245.419.027.993-.412 1.185-.202.111-.441.07-.66.057-.335-.161-.618-.48-.592-.869Zm-7.714.694c.448-.272 1.052.221.881.7-.092.413-.658.582-.98.318-.346-.248-.291-.842.1-1.02v.002Zm16.565-.002c.38-.29 1.006.043.96.514.026.43-.516.755-.893.533-.414-.184-.457-.812-.067-1.046v-.001Zm-6.682.856c.626-.221 1.371.043 1.727.594.471.67.222 1.693-.51 2.079-.757.455-1.863.07-2.143-.763-.317-.745.146-1.677.925-1.91h.002Zm-3.675.073c.694-.322 1.629-.052 1.964.646.394.68.09 1.628-.616 1.979-.706.395-1.704.095-2.045-.634-.383-.707-.043-1.666.697-1.99Zm-3.68 1.237c.053-.44.475-.726.9-.757a.986.986 0 0 1 .876.863c-.03.453-.386.893-.873.891-.536.046-1.006-.48-.903-.997Zm10.87-.66c.55-.315 1.313.143 1.29.765.037.659-.809 1.123-1.356.736-.57-.322-.525-1.227.065-1.501Zm-8.685 2.321c.642-.174 1.379.124 1.694.706.345.585.204 1.398-.332 1.83-.69.629-1.958.376-2.325-.484-.421-.788.09-1.844.962-2.053l.001.001Zm6.97-.003c.625-.176 1.36.06 1.696.621.445.641.233 1.598-.429 2.01-.694.48-1.767.23-2.149-.521-.463-.776.003-1.873.883-2.11Zm-11.108.73c.555-.205 1.17.397.946.94-.137.493-.845.676-1.21.312-.428-.343-.27-1.102.264-1.251Zm15.062.788a.841.841 0 0 1 .793-.88c.38.06.75.363.72.77.036.539-.623.904-1.09.651-.218-.11-.33-.33-.423-.541Zm-17.794-.52c.334-.143.747.141.67.507-.017.413-.638.573-.866.227-.2-.24-.08-.61.196-.734Zm21.08-.009c.235-.164.613-.046.706.225.158.296-.132.7-.47.65-.475.043-.628-.668-.236-.875Zm-12.394 1.986c.88-.225 1.825.497 1.831 1.389.056.9-.875 1.698-1.775 1.49-.696-.11-1.243-.77-1.22-1.461-.002-.663.506-1.278 1.164-1.418Zm3.483-.001c.893-.246 1.867.489 1.853 1.4.047.884-.856 1.656-1.737 1.48-.83-.105-1.442-1.002-1.21-1.794.116-.528.565-.956 1.094-1.087Zm-6.718.548c.618-.103 1.198.574.947 1.151-.183.616-1.092.782-1.495.28-.47-.483-.119-1.364.548-1.43Zm10.218.027c.551-.227 1.228.242 1.185.83.023.648-.813 1.094-1.351.716-.61-.34-.5-1.338.166-1.546Zm2.856 2.818c-.216-.396.176-.92.624-.846.221-.004.377.168.519.313.029.234.078.514-.12.694-.269.335-.877.24-1.023-.161Zm-16.37-.737c.418-.272 1.018.135.924.614-.05.426-.594.668-.951.427-.385-.219-.37-.841.027-1.04Zm8.244.889c.547-.237 1.243.231 1.19.823.04.654-.82 1.107-1.354.714-.593-.337-.494-1.329.164-1.537Zm-3.818.876c.465-.24 1.09.175 1.047.689.014.42-.402.778-.825.716-.35-.007-.577-.316-.69-.609.007-.319.14-.674.468-.795Zm7.735.008c.479-.291 1.159.127 1.114.675.012.573-.757.94-1.203.563-.43-.295-.378-1.003.089-1.238Zm1.345 3.27c-.213-.315.037-.697.382-.77.279.056.574.262.515.579-.04.43-.679.56-.897.193v-.001Zm-10.677-.274c.084-.252.29-.5.59-.435.438.03.568.68.184.88-.344.23-.744-.084-.774-.445Zm5.152.289c.083-.373.571-.553.893-.355.213.09.276.324.33.523a9.085 9.085 0 0 0-.08.312c-.132.153-.302.307-.521.302-.408.047-.776-.407-.623-.782Z"/></g><path fill="#fff" d="M20.723 10.998c.482-.248 1.07.326.815.8-.15.386-.715.49-1.002.194-.305-.282-.206-.841.187-.995v.001Zm-5.187.55c.293-.12.664.144.634.46.03.34-.393.591-.692.429-.395-.15-.35-.783.058-.89Zm10.624.898c-.458-.054-.53-.763-.09-.906.341-.163.655.144.706.463-.073.272-.304.521-.616.443Zm-9.444 1.273c.49-.305 1.188.149 1.113.71-.025.564-.788.892-1.219.51-.416-.3-.353-.989.106-1.22Zm7.476.324c.219-.553 1.104-.572 1.353-.032.246.42-.057.94-.494 1.083-.58.106-1.131-.512-.859-1.051Zm-4.094 1.02c-.005-.478.436-.832.896-.865.305.06.637.188.768.491.245.419.027.993-.412 1.185-.202.111-.441.07-.66.057-.335-.161-.618-.48-.592-.869Zm-7.714.694c.448-.272 1.052.221.881.7-.092.413-.658.582-.98.318-.346-.248-.291-.842.1-1.02v.002Zm16.565-.002c.38-.29 1.006.043.96.514.026.43-.516.755-.893.533-.414-.184-.457-.812-.067-1.046v-.001Zm-6.682.856c.626-.221 1.371.043 1.727.594.471.67.222 1.693-.51 2.079-.757.455-1.863.07-2.143-.763-.317-.745.146-1.677.925-1.91h.002Zm-3.675.073c.694-.322 1.629-.052 1.964.646.394.68.09 1.628-.616 1.979-.706.395-1.704.095-2.045-.634-.383-.707-.043-1.666.697-1.99Zm-3.68 1.237c.053-.44.475-.726.9-.757a.986.986 0 0 1 .876.863c-.03.453-.386.893-.873.891-.536.046-1.006-.48-.903-.997Zm10.87-.66c.55-.315 1.313.143 1.29.765.037.659-.809 1.123-1.356.736-.57-.322-.525-1.227.065-1.501Zm-8.685 2.321c.642-.174 1.379.124 1.694.706.345.585.204 1.398-.332 1.83-.69.629-1.958.376-2.325-.484-.421-.788.09-1.844.962-2.053l.001.001Zm6.97-.003c.625-.176 1.36.06 1.696.621.445.641.233 1.598-.429 2.01-.694.48-1.767.23-2.149-.521-.463-.776.003-1.873.883-2.11Zm-11.108.73c.555-.205 1.17.397.946.94-.137.493-.845.676-1.21.312-.428-.343-.27-1.102.264-1.251Zm15.062.788a.841.841 0 0 1 .793-.88c.38.06.75.363.72.77.036.539-.623.904-1.09.651-.218-.11-.33-.33-.423-.541Zm-17.794-.52c.334-.143.747.141.67.507-.017.413-.638.573-.866.227-.2-.24-.08-.61.196-.734Zm21.08-.009c.235-.164.613-.046.706.225.158.296-.132.7-.47.65-.475.043-.628-.668-.236-.875Zm-12.394 1.986c.88-.225 1.825.497 1.831 1.389.056.9-.875 1.698-1.775 1.49-.696-.11-1.243-.77-1.22-1.461-.002-.663.506-1.278 1.164-1.418Zm3.483-.001c.893-.246 1.867.489 1.853 1.4.047.884-.856 1.656-1.737 1.48-.83-.105-1.442-1.002-1.21-1.794.116-.528.565-.956 1.094-1.087Zm-6.718.548c.618-.103 1.198.574.947 1.151-.183.616-1.092.782-1.495.28-.47-.483-.119-1.364.548-1.43Zm10.218.027c.551-.227 1.228.242 1.185.83.023.648-.813 1.094-1.351.716-.61-.34-.5-1.338.166-1.546Zm2.856 2.818c-.216-.396.176-.92.624-.846.221-.004.377.168.519.313.029.234.078.514-.12.694-.269.335-.877.24-1.023-.161Zm-16.37-.737c.418-.272 1.018.135.924.614-.05.426-.594.668-.951.427-.385-.219-.37-.841.027-1.04Zm8.244.889c.547-.237 1.243.231 1.19.823.04.654-.82 1.107-1.354.714-.593-.337-.494-1.329.164-1.537Zm-3.818.876c.465-.24 1.09.175 1.047.689.014.42-.402.778-.825.716-.35-.007-.577-.316-.69-.609.007-.319.14-.674.468-.795Zm7.735.008c.479-.291 1.159.127 1.114.675.012.573-.757.94-1.203.563-.43-.295-.378-1.003.089-1.238Zm1.345 3.27c-.213-.315.037-.697.382-.77.279.056.574.262.515.579-.04.43-.679.56-.897.193v-.001Zm-10.677-.274c.084-.252.29-.5.59-.435.438.03.568.68.184.88-.344.23-.744-.084-.774-.445Zm5.152.289c.083-.373.571-.553.893-.355.213.09.276.324.33.523a9.085 9.085 0 0 0-.08.312c-.132.153-.302.307-.521.302-.408.047-.776-.407-.623-.782Z"/></g></g><defs><clipPath id="a"><path fill="#fff" d="M0 0h42v42H0z"/></clipPath><clipPath id="d"><path fill="#fff" d="M4.9 4.9h32.2v32.2H4.9z"/></clipPath><linearGradient id="b" x1="21" x2="21" y1="0" y2="61.409" gradientUnits="userSpaceOnUse"><stop stop-color="#08021E"/><stop offset="1" stop-color="#1F0777"/></linearGradient><filter id="e" width="22.418" height="20.406" x="9.785" y="10.865" color-interpolation-filters="sRGB" filterUnits="userSpaceOnUse"><feFlood flood-opacity="0" result="BackgroundImageFix"/><feColorMatrix in="SourceAlpha" result="hardAlpha" values="0 0 0 0 0 0 0 0 0 0 0 0 0 0 0 0 0 0 127 0"/><feOffset dy=".073"/><feGaussianBlur stdDeviation=".073"/><feColorMatrix values="0 0 0 0 0 0 0 0 0 0 0 0 0 0 0 0 0 0 0.204257 0"/><feBlend in2="BackgroundImageFix" result="effect1_dropShadow_7277_57979"/><feBlend in="SourceGraphic" in2="effect1_dropShadow_7277_57979" result="shape"/></filter></defs></svg>
